X:14
T:Mikor megyek hazafelé
M:4/4
L:1/4
K:D
d/c/B/c/ d/A/G/F/ | A/A/A/G/ F<E | D2 D2 |
f/f/e/d/ c/d/e/B/ | e>f e<d | A2 A2 |
f/f/e/d/ c/d/e/B/ | e>f e<d | A2 F2 |
d/c/B/c/ d/A/G/F/ | A/A/A/G/ F<E D2 D2 |

